!!!COM: Beethoven
!!!OTL: 13 Variationen uber "Es war einmal ein alter Mann" aus "Das rote Kappchen" von K. Ditters von Dittersdorf
!!!Variation: Variation 2 e
**function	**harm	**kern	**kern
*	*	*clefF4	*clefG2
*	*	*k[f#c#g#]	*k[f#c#g#]
*M2/4	*M2/4	*M2/4	*M2/4
*A:	*A:	*A:	*A:
=102	=102	=102	=102
2T	2I	8E'L	8a
.	.	8A'J	8r
.	.	(16AALL	4r
.	.	16BB	.
.	.	16C#	.
.	.	16DJJ	.
=103	=103	=103	=103
2T	2V	8.EL	2r
.	.	16F#Jk	.
.	.	8E'L)	.
.	.	8D'J	.
=104	=104	=104	=104
2T	2I	8C#'L	8e'L
.	.	8E'	8a'J
.	.	8AA'J	(16ALL
.	.	.	16B
.	.	8r	16c#
.	.	.	16dJJ
=105	=105	=105	=105
2T	2V	8GG#'L	8.eL
.	.	8BB'	.
.	.	.	16f#Jk
.	.	8EE'J	8e'L)
.	.	8r	8d'J
=106	=106	=106	=106
4T	4I	8AA'L	(4c#
.	.	8C#'	.
8P	8iib	8D'	16BLL
.	.	.	16d
8D	8V	8E'J	16B
.	.	.	16G#JJ
=107	=107	=107	=107
8T	8I	8AA'L	4A)
8T	8IVb	(16AL	.
.	.	16F#JJ	.
8T	8I	8E'L)	8r
8T	8IV	(16F#L	(16aLL
.	.	16DJJ	16f#JJ
=108	=108	=108	=108
8T	8Ib	8C#'L)	8e'L)
8T	8IV	8D'J	(16f#L
.	.	.	16dJJ
8T	8Cc	8E'L	8c#'L)
8T	8V7	8EE'J	(16dL
.	.	.	16BJJ
=109	=109	=109	=109
8T	8I	4AA	8A'L)
8T	8IVb	.	(16aL
.	.	.	16f#JJ
8T	8I	8r	8e'L)
8T	8IVb	(16ALL	(16f#L
.	.	16F#JJ	16dJJ
=110	=110	=110	=110
4T	4Cc	8E'L)	8c#'L)
.	.	(16F#L	(16dL
.	.	16DJJ	16BJJ
4T	4V	8E'L)	8A'L)
.	.	8EE'J	(16BL
.	.	.	16G#JJ
=111	=111	=111	=111
4.T	4.I	8AAL	4A')
.	.	8EE	.
.	.	8AAAJ	8r
*-	*-	*-	*-
